X:84
T:Fause Foodrage
T:mainly the same with ours
Z:Jack Campin - http://www.campin.me.uk
S:Blaikie MS (NLS MS.1578) p25, Blaikie #78
M:3/4
L:1/8
V:1 midi program 1 74
V:2 midi program 1 46 bass middle = d transpose -24
Q:1/4=80
K:G
[V:1] DE |GE D2 E2|GE D2 e2|d2 B2 A/B/d|e4    
[V:2] z2 |c2 B2 c2|c2 B2 c2|B2 G2 d2   |c2 c'2
%
[V:1] e2 |dB A2 AB|GE D2 DE|G2 B2 A>G  |G4   |]
[V:2] c'2|g2 f2 d2|c2 B2 B2|B2 G2 d2   |G2 g2|]
W:Transcription (c) Jack Campin 2009, no mirroring or republication without permission

